src/assets/Devices/Steam Deck Gyro.svg

<svg width="1766" height="698" viewBox="0 0 1766 698" fill="none" xmlns="http://www.w3.org/2000/svg">
<path d="M20.1645 70.306C1.5714 101.369 2.24767 143.544 3.60021 227.893L6.57658 413.51C8.31457 521.898 9.18356 576.091 34.0895 615.799C48.0318 638.027 66.9869 656.681 89.4359 670.265C129.538 694.531 183.739 694.531 292.14 694.531H1473.03C1581.43 694.531 1635.63 694.531 1675.73 670.265C1698.18 656.681 1717.13 638.027 1731.08 615.799C1755.98 576.091 1756.85 521.898 1758.59 413.51L1761.57 227.893C1762.92 143.544 1763.59 101.369 1745 70.306C1734.6 52.9321 1720.2 38.2965 1702.99 27.62C1672.23 8.53125 1630.05 8.53125 1545.69 8.53125H219.472C135.113 8.53125 92.9328 8.53125 62.1716 27.62C44.9666 38.2965 30.5638 52.9321 20.1645 70.306Z" stroke="white" stroke-width="6"/>
<path d="M6.34163 241.45C5.85903 204.048 5.49786 176.027 7.03638 153.78C8.57449 131.538 12.0093 115.112 19.0938 100.892C31.5806 75.8284 51.7422 55.405 76.6427 42.5959C90.7702 35.3285 107.151 31.682 129.37 29.8571C151.596 28.0316 179.619 28.0312 217.024 28.0312H1548.14C1585.54 28.0312 1613.57 28.0316 1635.79 29.8571C1658.01 31.682 1674.39 35.3285 1688.52 42.5959C1713.42 55.405 1733.58 75.8284 1746.07 100.892C1753.15 115.112 1756.59 131.538 1758.13 153.78C1759.66 176.027 1759.3 204.048 1758.82 241.45L1758.7 251.031H1699.08H1699.06C1690.68 251.031 1684.36 251.031 1679.34 251.442C1674.3 251.853 1670.53 252.679 1667.23 254.356C1661.5 257.28 1656.83 261.946 1653.91 267.685C1652.23 270.975 1651.4 274.753 1650.99 279.787C1650.58 284.81 1650.58 291.127 1650.58 299.509V299.531V393.531C1650.58 398.627 1650.58 404.958 1650.67 408.698C1650.67 426.758 1640.27 450.776 1624.56 477.431C1608.86 504.063 1587.93 533.233 1566.98 561.566C1562.08 568.199 1557.17 574.786 1552.33 581.284C1536.51 602.535 1521.4 622.83 1509.36 640.637C1501.5 652.263 1494.94 662.843 1490.34 671.948C1485.89 680.777 1483.24 688.281 1483.1 694.031H280.068C279.924 688.162 277.28 680.58 272.82 671.702C268.224 662.553 261.664 651.964 253.804 640.35C241.737 622.52 226.582 602.241 210.717 581.014C205.917 574.591 201.052 568.08 196.187 561.525C175.24 533.296 154.308 504.221 138.612 477.574C122.904 450.906 112.5 426.763 112.498 408.37C112.581 404.706 112.581 398.483 112.581 393.537V393.531V299.531V299.507C112.581 291.127 112.581 284.809 112.171 279.787C111.76 274.753 110.934 270.975 109.257 267.685C106.333 261.946 101.667 257.28 95.9281 254.356C92.6372 252.679 88.8595 251.853 83.826 251.442C78.803 251.031 72.4856 251.031 64.1047 251.031H64.0813H6.46526L6.34163 241.45Z" stroke="white"/>
<path d="M132.582 1.53125C100.082 1.53125 67.082 10.5312 51.582 35.0312C75.582 10.5312 138.082 8.03125 161.582 8.03125C185.082 8.03125 285.082 11.5312 283.082 8.03125C281.082 4.53125 272.582 1.53125 263.582 1.53125H132.582Z" stroke="white" stroke-width="2"/>
<path d="M1629.61 1.53125C1662.11 1.53125 1695.11 10.5312 1710.61 35.0312C1686.61 10.5312 1624.11 8.03125 1600.61 8.03125C1577.11 8.03125 1477.11 11.5312 1479.11 8.03125C1481.11 4.53125 1489.61 1.53125 1498.61 1.53125H1629.61Z" stroke="white" stroke-width="2"/>
</svg>

<svg width="1766" height="698" fill="none" xmlns="http://www.w3.org/2000/svg"><path d="M20.165 70.306C1.57 101.369 2.247 143.544 3.6 227.893L6.577 413.51C8.315 521.898 9.184 576.091 34.09 615.799a168.003 168.003 0 0 0 55.346 54.466c40.102 24.266 94.303 24.266 202.704 24.266h1180.89c108.4 0 162.6 0 202.7-24.266a168.077 168.077 0 0 0 55.35-54.466c24.9-39.708 25.77-93.901 27.51-202.289l2.98-185.617c1.35-84.349 2.02-126.524-16.57-157.587a126.97 126.97 0 0 0-42.01-42.686c-30.76-19.089-72.94-19.089-157.3-19.089H219.472c-84.359 0-126.54 0-157.3 19.089a127 127 0 0 0-42.007 42.686Z" stroke="#fff" stroke-width="6"/><path d="M6.343 241.45c-.483-37.402-.844-65.423.694-87.67 1.538-22.242 4.973-38.668 12.058-52.888a131.5 131.5 0 0 1 57.549-58.296c14.127-7.267 30.508-10.914 52.727-12.739 22.226-1.825 50.249-1.826 87.654-1.826H1548.14c37.4 0 65.43 0 87.65 1.826 22.22 1.825 38.6 5.471 52.73 12.739a131.522 131.522 0 0 1 57.55 58.296c7.08 14.22 10.52 30.646 12.06 52.888 1.54 22.247 1.17 50.268.69 87.67l-.12 9.581h-59.64c-8.38 0-14.7 0-19.72.411-5.04.411-8.81 1.237-12.1 2.914a30.475 30.475 0 0 0-13.33 13.329c-1.68 3.29-2.51 7.068-2.92 12.102-.41 5.023-.41 11.34-.41 19.722v94.022c0 5.096 0 11.427.09 15.167 0 18.06-10.4 42.078-26.11 68.733-15.7 26.632-36.63 55.802-57.58 84.135-4.9 6.633-9.81 13.22-14.65 19.718-15.82 21.251-30.93 41.546-42.97 59.353-7.86 11.626-14.42 22.206-19.02 31.311-4.45 8.829-7.1 16.333-7.24 22.083H280.069c-.144-5.869-2.788-13.451-7.248-22.329-4.596-9.149-11.156-19.738-19.016-31.352-12.067-17.83-27.222-38.109-43.087-59.336a7353.43 7353.43 0 0 1-14.53-19.489c-20.947-28.229-41.879-57.304-57.575-83.951-15.708-26.668-26.112-50.811-26.114-69.204.083-3.664.083-9.887.083-14.833v-94.03c0-8.38 0-14.698-.41-19.72-.411-5.034-1.237-8.812-2.914-12.102a30.498 30.498 0 0 0-13.329-13.329c-3.29-1.677-7.069-2.503-12.102-2.914-5.023-.411-11.34-.411-19.721-.411H6.466l-.123-9.581Z" stroke="#fff"/><path d="M132.583 1.531c-32.5 0-65.5 9-81 33.5 24-24.5 86.5-27 110-27s123.5 3.5 121.5 0-10.5-6.5-19.5-6.5h-131Zm1497.027 0c32.5 0 65.5 9 81 33.5-24-24.5-86.5-27-110-27s-123.5 3.5-121.5 0 10.5-6.5 19.5-6.5h131Z" stroke="#fff" stroke-width="2"/></svg>
